X: 11
T: Toormore, The
Z: Makenzie
S: https://thesession.org/tunes/110#setting48553
R: slide
M: 12/8
L: 1/8
K: Bmin
|:F2B BAB d2e f2d|e2e efe c2e a3|
F2B BAB|d2e f2d|1 e2d B2A B3 BAG:|2 e2d B2A B3 d2e||
|:fgf efe ded cdc|BAB edB A2 FF2E|
F2B BAB d2e f2d|1 e2d B2A B3 d2e:|2 e2d B2A B3 BAG||

